SVG_Azure_Grouped/Workload/Database Server Generic.svg

<?xml version="1.0" encoding="UTF-8" standalone="no"?>
<!-- Generated by Microsoft Visio, SVG Export Database Server Generic.svg Page-1 -->

<svg
   xmlns:dc="http://purl.org/dc/elements/1.1/"
   xmlns:cc="http://creativecommons.org/ns#"
   xmlns:rdf="http://www.w3.org/1999/02/22-rdf-syntax-ns#"
   xmlns:svg="http://www.w3.org/2000/svg"
   xmlns="http://www.w3.org/2000/svg"
   xmlns:sodipodi="http://sodipodi.sourceforge.net/DTD/sodipodi-0.dtd"
   xmlns:inkscape="http://www.inkscape.org/namespaces/inkscape"
   width="0.5904966in"
   height="0.78743482in"
   viewBox="0 0 42.515816 56.695361"
   xml:space="preserve"
   class="st8"
   version="1.1"
   id="svg128"
   sodipodi:docname="Database Server Generic.svg"
   style="font-size:12px;overflow:visible;color-interpolation-filters:sRGB;fill:none;fill-rule:evenodd;stroke-linecap:square;stroke-miterlimit:3"
   inkscape:version="0.92.5 (2060ec1f9f, 2020-04-08)"><metadata
   id="metadata132"><rdf:RDF><cc:Work
       rdf:about=""><dc:format>image/svg+xml</dc:format><dc:type
         rdf:resource="http://purl.org/dc/dcmitype/StillImage" /></cc:Work></rdf:RDF></metadata><sodipodi:namedview
   pagecolor="#ffffff"
   bordercolor="#666666"
   borderopacity="1"
   objecttolerance="10"
   gridtolerance="10"
   guidetolerance="10"
   inkscape:pageopacity="0"
   inkscape:pageshadow="2"
   inkscape:window-width="640"
   inkscape:window-height="480"
   id="namedview130"
   showgrid="false"
   inkscape:zoom="1.397344"
   inkscape:cx="27.040359"
   inkscape:cy="39.093001"
   inkscape:window-x="0"
   inkscape:window-y="0"
   inkscape:window-maximized="0"
   inkscape:current-layer="svg128" />
	<style
   type="text/css"
   id="style2">
	<![CDATA[
		.st1 {fill:url(#grad0-11);stroke:none;stroke-linecap:butt;stroke-width:35.9597}
		.st2 {fill:#003067;stroke:none;stroke-linecap:butt;stroke-width:35.9597}
		.st3 {fill:#50e6ff;stroke:none;stroke-linecap:butt;stroke-width:35.9597}
		.st4 {fill:url(#grad0-30);stroke:none;stroke-linecap:butt;stroke-width:34}
		.st5 {fill:#e8e8e8;stroke:none;stroke-linecap:butt;stroke-width:34}
		.st6 {fill:#50e6ff;stroke:none;stroke-linecap:butt;stroke-width:34}
		.st7 {fill:#198ab3;stroke:none;stroke-linecap:butt;stroke-width:34}
		.st8 {fill:none;fill-rule:evenodd;font-size:12px;overflow:visible;stroke-linecap:square;stroke-miterlimit:3}
	]]>
	</style>

	<defs
   id="Patterns_And_Gradients">
		<linearGradient
   id="grad0-11"
   x1="-0.00027585006"
   y1="54.370481"
   x2="40.926398"
   y2="54.370481"
   gradientTransform="scale(0.75232616,1.3292107)"
   gradientUnits="userSpaceOnUse">
			<stop
   offset="0"
   stop-color="#949494"
   stop-opacity="1"
   id="stop4" />
			<stop
   offset="0.53"
   stop-color="#a2a2a2"
   stop-opacity="1"
   id="stop6" />
			<stop
   offset="1"
   stop-color="#b3b3b3"
   stop-opacity="1"
   id="stop8" />
		</linearGradient>
		<linearGradient
   id="grad0-30"
   x1="0"
   y1="90.87426"
   x2="25.269848"
   y2="90.87426"
   gradientTransform="scale(0.91690304,1.0906279)"
   gradientUnits="userSpaceOnUse">
			<stop
   offset="0"
   stop-color="#005ba1"
   stop-opacity="1"
   id="stop11" />
			<stop
   offset="0.07"
   stop-color="#0060a9"
   stop-opacity="1"
   id="stop13" />
			<stop
   offset="0.36"
   stop-color="#0071c8"
   stop-opacity="1"
   id="stop15" />
			<stop
   offset="0.52"
   stop-color="#0078d4"
   stop-opacity="1"
   id="stop17" />
			<stop
   offset="0.64"
   stop-color="#0074cd"
   stop-opacity="1"
   id="stop19" />
			<stop
   offset="0.82"
   stop-color="#006abb"
   stop-opacity="1"
   id="stop21" />
			<stop
   offset="1"
   stop-color="#005ba1"
   stop-opacity="1"
   id="stop23" />
		</linearGradient>
	</defs>
	<g
   id="g126"
   transform="translate(-35.959692,-35.958926)">
		<title
   id="title27">Page-1</title>
		<g
   id="group15773-1"
   transform="translate(35.9599,-34.0157)">
			<title
   id="title29">Database Server Generic.15773</title>
			<g
   id="group15774-2">
				<title
   id="title31">Page-1</title>
				<g
   id="group15775-3">
					<title
   id="title33">Sheet.15775</title>
					<g
   id="group15776-4"
   transform="translate(0,-2.2952)">
						<title
   id="title35">Sheet.15776</title>
						<g
   id="group15777-5">
							<title
   id="title37">Icon-databases-136.149</title>
							<g
   id="group15778-6">
								<title
   id="title39">path4-5</title>
								<g
   id="group15779-7">
									<title
   id="title41">Sheet.15779</title>
									<g
   id="shape15780-8">
										<title
   id="title43">Sheet.15780</title>
										<path
   d="m 30.79,124.82 a 1.88724,1.81867 90 0 1 -1.78,1.85 H 1.78 A 1.85469,1.78732 90 0 1 0,124.82 v -50.7 a 1.82216,1.75596 90 0 1 1.78,-1.85 h 27.23 a 1.85469,1.78732 90 0 1 1.78,1.85 z"
   class="st1"
   id="path45"
   inkscape:connector-curvature="0"
   style="fill:url(#grad0-11);stroke:none;stroke-width:35.95970154;stroke-linecap:butt" />
									</g>
								</g>
							</g>
							<g
   id="group15781-12"
   transform="translate(4.51533,-31.8551)">
								<title
   id="title50">path6-7</title>
								<g
   id="group15782-13">
									<title
   id="title52">Sheet.15782</title>
									<g
   id="shape15783-14">
										<title
   id="title54">Sheet.15783</title>
										<path
   d="m 0,123.19 a 3.48163,3.35514 90 0 1 3.33,-3.45 h 15.36 a 3.48163,3.35514 90 0 1 3.44,3.45 3.48163,3.35514 90 0 1 -3.44,3.48 H 3.33 A 3.48163,3.35514 90 0 1 0,123.19 Z m 0,-10.28 a 3.48163,3.35514 90 0 1 3.33,-3.48 h 15.36 a 3.48163,3.35514 90 0 1 3.44,3.48 3.48163,3.35514 90 0 1 -3.44,3.45 H 3.33 A 3.48163,3.35514 90 0 1 0,112.91 Z"
   class="st2"
   id="path56"
   inkscape:connector-curvature="0"
   style="fill:#003067;stroke:none;stroke-width:35.95970154;stroke-linecap:butt" />
									</g>
								</g>
							</g>
							<g
   id="group15784-16"
   transform="translate(5.76958,-43.2737)">
								<title
   id="title61">circle8-5</title>
								<g
   id="group15785-17">
									<title
   id="title63">Sheet.15785</title>
									<g
   id="shape15786-18">
										<title
   id="title65">Sheet.15786</title>
										<ellipse
   cx="2.2576599"
   cy="124.326"
   rx="2.2576599"
   ry="2.3427801"
   class="st3"
   id="ellipse67"
   style="fill:#50e6ff;stroke:none;stroke-width:35.95970154;stroke-linecap:butt" />
									</g>
								</g>
							</g>
							<g
   id="group15787-20"
   transform="translate(5.76958,-32.9916)">
								<title
   id="title72">circle10-2</title>
								<g
   id="group15788-21">
									<title
   id="title74">Sheet.15788</title>
									<g
   id="shape15789-22">
										<title
   id="title76">Sheet.15789</title>
										<ellipse
   cx="2.2576599"
   cy="124.326"
   rx="2.2576599"
   ry="2.3427801"
   class="st3"
   id="ellipse78"
   style="fill:#50e6ff;stroke:none;stroke-width:35.95970154;stroke-linecap:butt" />
									</g>
								</g>
							</g>
						</g>
					</g>
					<g
   id="group15790-24"
   transform="translate(19.3456)">
						<title
   id="title85">SQL Database</title>
						<g
   id="group15791-25">
							<title
   id="title87">Sheet.15791</title>
							<g
   id="group15792-26">
								<title
   id="title89">Sheet.15792</title>
								<g
   id="shape15793-27">
									<title
   id="title91">Sheet.15793</title>
									<path
   d="M 11.59,103.47 C 5.18,103.47 0,101.59 0,99.11 v 23.2 c 0,2.39 5.1,4.32 11.43,4.36 h 0.16 c 6.4,0 11.58,-1.88 11.58,-4.36 v -23.2 c 0,2.42 -5.18,4.36 -11.58,4.36 z"
   class="st4"
   id="path93"
   inkscape:connector-curvature="0"
   style="fill:url(#grad0-30);stroke:none;stroke-width:34;stroke-linecap:butt" />
								</g>
							</g>
							<g
   id="group15794-31"
   transform="translate(0,-23.2041)">
								<title
   id="title97">Sheet.15794</title>
								<g
   id="shape15795-32">
									<title
   id="title99">Sheet.15795</title>
									<path
   d="m 23.17,122.31 c 0,2.43 -5.18,4.36 -11.58,4.36 -6.41,0 -11.59,-1.88 -11.59,-4.36 0,-2.47 5.18,-4.35 11.59,-4.35 6.4,0 11.58,1.88 11.58,4.35 z"
   class="st5"
   id="path101"
   inkscape:connector-curvature="0"
   style="fill:#e8e8e8;stroke:none;stroke-width:34;stroke-linecap:butt" />
								</g>
							</g>
							<g
   id="group15796-34"
   transform="translate(2.69393,-25.1377)">
								<title
   id="title105">Sheet.15796</title>
								<g
   id="shape15797-35">
									<title
   id="title107">Sheet.15797</title>
									<path
   d="m 17.79,123.89 c 0,1.54 -3.99,2.78 -8.9,2.78 C 4,126.67 0,125.43 0,123.89 c 0,-1.54 4,-2.76 8.89,-2.76 4.91,0 8.9,1.24 8.9,2.76 z"
   class="st6"
   id="path109"
   inkscape:connector-curvature="0"
   style="fill:#50e6ff;stroke:none;stroke-width:34;stroke-linecap:butt" />
								</g>
							</g>
							<g
   id="group15798-37"
   transform="translate(4.55617,-25.1377)">
								<title
   id="title113">Sheet.15798</title>
								<g
   id="shape15799-38">
									<title
   id="title115">Sheet.15799</title>
									<path
   d="m 7.03,124.59 a 21.6834,20.8824 -90 0 0 -7.03,1.06 21.4394,20.6474 -90 0 0 7.03,1.02 20.9324,20.1592 -90 0 0 7.04,-1.09 22.2278,21.4067 -90 0 0 -7.04,-0.99 z"
   class="st7"
   id="path117"
   inkscape:connector-curvature="0"
   style="fill:#198ab3;stroke:none;stroke-width:34;stroke-linecap:butt" />
								</g>
							</g>
						</g>
					</g>
				</g>
			</g>
		</g>
	</g>
</svg>

<?xml version="1.0" encoding="UTF-8" standalone="no"?>
<!DOCTYPE svg PUBLIC "-//W3C//DTD SVG 1.1//EN" "http://www.w3.org/Graphics/SVG/1.1/DTD/svg11.dtd">
<!-- Generated by Microsoft Visio, SVG Export Database Server Generic.svg Page-1 -->
<svg xmlns="http://www.w3.org/2000/svg" xmlns:xlink="http://www.w3.org/1999/xlink" xmlns:ev="http://www.w3.org/2001/xml-events"
		width="1.56222in" height="1.75929in" viewBox="0 0 112.48 126.669" xml:space="preserve" color-interpolation-filters="sRGB"
		class="st8">
	<style type="text/css">
	<![CDATA[
		.st1 {fill:url(#grad0-11);stroke:none;stroke-linecap:butt;stroke-width:35.9597}
		.st2 {fill:#003067;stroke:none;stroke-linecap:butt;stroke-width:35.9597}
		.st3 {fill:#50e6ff;stroke:none;stroke-linecap:butt;stroke-width:35.9597}
		.st4 {fill:url(#grad0-30);stroke:none;stroke-linecap:butt;stroke-width:34}
		.st5 {fill:#e8e8e8;stroke:none;stroke-linecap:butt;stroke-width:34}
		.st6 {fill:#50e6ff;stroke:none;stroke-linecap:butt;stroke-width:34}
		.st7 {fill:#198ab3;stroke:none;stroke-linecap:butt;stroke-width:34}
		.st8 {fill:none;fill-rule:evenodd;font-size:12px;overflow:visible;stroke-linecap:square;stroke-miterlimit:3}
	]]>
	</style>

	<defs id="Patterns_And_Gradients">
		<linearGradient id="grad0-11" x1="0" y1="0" x2="1" y2="0" gradientTransform="rotate(-90 0.5 0.5)">
			<stop offset="0" stop-color="#949494" stop-opacity="1"/>
			<stop offset="0.53" stop-color="#a2a2a2" stop-opacity="1"/>
			<stop offset="1" stop-color="#b3b3b3" stop-opacity="1"/>
		</linearGradient>
		<linearGradient id="grad0-30" x1="0" y1="0" x2="1" y2="0" gradientTransform="rotate(0 0.5 0.5)">
			<stop offset="0" stop-color="#005ba1" stop-opacity="1"/>
			<stop offset="0.07" stop-color="#0060a9" stop-opacity="1"/>
			<stop offset="0.36" stop-color="#0071c8" stop-opacity="1"/>
			<stop offset="0.52" stop-color="#0078d4" stop-opacity="1"/>
			<stop offset="0.64" stop-color="#0074cd" stop-opacity="1"/>
			<stop offset="0.82" stop-color="#006abb" stop-opacity="1"/>
			<stop offset="1" stop-color="#005ba1" stop-opacity="1"/>
		</linearGradient>
	</defs>
	<g>
		<title>Page-1</title>
		<g id="group15390-1" transform="translate(35.9599,-34.0157)">
			<title>Database Server Generic.15390</title>
			<g id="group15391-2">
				<title>Page-1</title>
				<g id="group15392-3">
					<title>Sheet.15392</title>
					<g id="group15393-4" transform="translate(0,-2.2952)">
						<title>Sheet.15393</title>
						<g id="group15394-5">
							<title>Icon-databases-136.149</title>
							<g id="group15395-6">
								<title>path4-5</title>
								<g id="group15396-7">
									<title>Sheet.15396</title>
									<g id="shape15397-8">
										<title>Sheet.15397</title>
										<path d="M30.79 124.82 A1.88724 1.81867 90 0 1 29.01 126.67 L1.78 126.67 A1.85469 1.78732
													 90 0 1 0 124.82 L0 74.12 A1.82216 1.75596 90 0 1 1.78 72.27 L29.01 72.27 A1.85469
													 1.78732 90 0 1 30.79 74.12 L30.79 124.82 Z" class="st1"/>
									</g>
								</g>
							</g>
							<g id="group15398-12" transform="translate(4.51533,-31.8551)">
								<title>path6-7</title>
								<g id="group15399-13">
									<title>Sheet.15399</title>
									<g id="shape15400-14">
										<title>Sheet.15400</title>
										<path d="M-0 123.19 A3.48163 3.35514 90 0 1 3.33 119.74 L18.69 119.74 A3.48163 3.35514 90
													 0 1 22.13 123.19 A3.48163 3.35514 90 0 1 18.69 126.67 L3.33 126.67 A3.48163
													 3.35514 90 0 1 0 123.19 ZM0 112.91 A3.48163 3.35514 90 0 1 3.33 109.43 L18.69
													 109.43 A3.48163 3.35514 90 0 1 22.13 112.91 A3.48163 3.35514 90 0 1 18.69 116.36
													 L3.33 116.36 A3.48163 3.35514 90 0 1 -0 112.91 Z" class="st2"/>
									</g>
								</g>
							</g>
							<g id="group15401-16" transform="translate(5.76958,-43.2737)">
								<title>circle8-5</title>
								<g id="group15402-17">
									<title>Sheet.15402</title>
									<g id="shape15403-18">
										<title>Sheet.15403</title>
										<ellipse cx="2.25766" cy="124.326" rx="2.25766" ry="2.34278" class="st3"/>
									</g>
								</g>
							</g>
							<g id="group15404-20" transform="translate(5.76958,-32.9916)">
								<title>circle10-2</title>
								<g id="group15405-21">
									<title>Sheet.15405</title>
									<g id="shape15406-22">
										<title>Sheet.15406</title>
										<ellipse cx="2.25766" cy="124.326" rx="2.25766" ry="2.34278" class="st3"/>
									</g>
								</g>
							</g>
						</g>
					</g>
					<g id="group15407-24" transform="translate(19.3456,-2.84217E-13)">
						<title>SQL Database</title>
						<g id="group15408-25">
							<title>Sheet.15408</title>
							<g id="group15409-26">
								<title>Sheet.15409</title>
								<g id="shape15410-27">
									<title>Sheet.15410</title>
									<path d="M11.59 103.47 C5.18 103.47 0 101.59 0 99.11 L0 122.31 C0 124.7 5.1 126.63 11.43 126.67
												 L11.59 126.67 C17.99 126.67 23.17 124.79 23.17 122.31 L23.17 99.11 C23.17 101.53
												 17.99 103.47 11.59 103.47 Z" class="st4"/>
								</g>
							</g>
							<g id="group15411-31" transform="translate(0,-23.2041)">
								<title>Sheet.15411</title>
								<g id="shape15412-32">
									<title>Sheet.15412</title>
									<path d="M23.17 122.31 C23.17 124.74 17.99 126.67 11.59 126.67 C5.18 126.67 0 124.79 0 122.31
												 C0 119.84 5.18 117.96 11.59 117.96 C17.99 117.96 23.17 119.84 23.17 122.31 Z"
											class="st5"/>
								</g>
							</g>
							<g id="group15413-34" transform="translate(2.69393,-25.1377)">
								<title>Sheet.15413</title>
								<g id="shape15414-35">
									<title>Sheet.15414</title>
									<path d="M17.79 123.89 C17.79 125.43 13.8 126.67 8.89 126.67 C4 126.67 0 125.43 0 123.89 C0 122.35
												 4 121.13 8.89 121.13 C13.8 121.13 17.79 122.37 17.79 123.89 Z" class="st6"/>
								</g>
							</g>
							<g id="group15415-37" transform="translate(4.55617,-25.1377)">
								<title>Sheet.15415</title>
								<g id="shape15416-38">
									<title>Sheet.15416</title>
									<path d="M7.03 124.59 A21.6834 20.8824 -90 0 0 -0 125.65 A21.4394 20.6474 -90 0 0 7.03 126.67
												 A20.9324 20.1592 -90 0 0 14.07 125.58 A22.2278 21.4067 -90 0 0 7.03 124.59 Z"
											class="st7"/>
								</g>
							</g>
						</g>
					</g>
				</g>
			</g>
		</g>
	</g>
</svg>
